!!!OTL: 10. Gelübde.
!!!ARE: Europa, Mitteleuropa, Deutschland, Thueringen (Melodie)
!!!SCT: B0010
!!!TXL: @@DE
!!!YEM: Copyright 1995, estate of Helmut Schaffrath.
**kern	**text
*ICvox	*
*Ivox	*
*M4/4	*
*met(c)	*
*clefG2	*
*k[f#]	*
*G:	*
!LO:TX:a:t=Mäßig und innig.	!
{4d	Jch
=1	=1
2b	hab
4a	mich
4b	er-
=2	=2
2g	-ge-
4d}	-ben
{4d	mit
=3	=3
2dd	Herʒ
4cc	und
4dd	mit
=4	=4
2b	Hand,
4r}	.
{4g	dir
=5	=5
4ee	Land
4ee	voll
4ee	Lieb
4ee	und
=6	=6
2dd	Le-
4b}	-ben,
{4dd	mein
=7	=7
4dd	deut-
8ccL	-ſches
8bJ	.
4cc	Va-
4dd	-ter-
=8	=8
2b	-land,
4r}	.
{4g	dir
=9	=9
4ee	Land
4ee	voll
4gg	Lieb
4ee	und
=10	=10
2dd	Le-
4b}	-ben,
{4dd	mein
=11	=11
4dd	deut-
8ccL	-ſches
8bJ	.
4cc	Va-
4dd	-ter-
=12	=12
2b	-land.
4r}	.
==	==
!!!AGN: politisch, national, Vaterlands - Lied
!!!GTL: Vaterlandslieder und Heimathgrüße
!!!ONB: ESAC (Essen Associative Code) Database: BOEHME
!!!AMT: simple quadruple
!!!AIN: vox
!!!EED: Helmut Schaffrath
!!!EEV: 1.0
!! Thüring. Mel. 1819: "Wir hatten gebauer".
!!@@COMMENT: "Lied gedichtet von O. F. Maßmann 1820 nach der Studentenmelodie: "Wir hatten gebauet."
!! Die Jahrzahl hat der Dichter im Liederb. der Berliner Gesellsch. für deutsche Sprache 1825 Nr. 8 selbst angegeben."
!!@@END:
!!Text: O. F. Maßmann
!!!URL-scan: https://archive.org/details/BoehmeVtLieder1895/page/n33/mode/2up
!!!ENC: Anna Maria Matuszewska
!!!EEV: 2024/13/06
*-	*-
